X:79
T:Ladies Breast Knott. Ru2.079, The
%%VWML:RutherfordVol2-2249-p40-0
F:http://www.vwml.org/record/RutherfordVol2/2249/p40
B:RUTHERFORD Complete Collection of 200 Country Dances Vol.2; 1759.
Z:vmp.Mike Hicken 2015 www.village-music-project.org.uk
N: * 1st and 2nd time bars have been added to give the correct repeat.
N: ** This note is shown as a quaver in the original. It has been changed to a crotchet to give the correct repeat.
M:C
K:D
D|GB-BG FA-AF|Ee-ed c2 BA|GB-BG FAAc|1 d/c/B/A/ dF TE2 D:|2 d/c/B/A/ dF TE2 D2 ||
|: fdfd fa-ag/f/|ecec eg-gf/e/|fdfd f a2 f |cAAG TF2 "**"D2 :|
W:
W: First Cu cast off & hands across with the 3d Cu .|
W: the 2d Cu does the same :| Hands round 6 .|.  lead
W: down two Cu: & cast up into the 2d Cus: Places
W: & turn your Partner :|.
T:Sailors Rant. Ru2.080, The
L:1/8
R:Rant
B:RUTHERFORD Complete Collection of 200 Country Dances Vol.2; 1759.
Z:vmp.Mike Hicken 2015 www.village-music-project.org.uk
N: *  These notes are unclear in the original. They are clear of the stave but have no ledger lines.
N: I have used a as shown in JBi.24 James Biggins MS, Leeds, 1779). See VMP.
N: The final symbol of dance notation in the original is :|
M:6/8
K:G
|:g3 dBd|ege dBd|gfe dcB|ABG FED|
g3 dBd|ege fg"*"a|gfe Ad^c|d3D3 :|
|: d3 BdB|c3 "*" aed|c3 AcA|B3 gdc|
B3 GBG|ABc def|gfe dBd |G3G3 :|
W:
W: Cast off one Cu: & Hands round 4 with the 3d Cu:
W: .|  cast up & Hands round with the 2d Cu :|  cross
W: over two Cu :|.  lead to the top & cast off :|.  foot it
W: corners & turn .||.  lead out sides & turn :|
